X:4
T:Mari Lwyd
M:C
L:1/4
Q:120
C:Trad. arr. J.T.
R:Processional
N:Compressed arrangement
K:G
E | G G2 G | G F2 A | G E2 D | d d2 D | E B2 G | A B2 A | G E2 D | d d2 D|
E B2 G | A F2 D | E2 E2- | E3 ||
